X: 1059
T: Am I In Logan, Love ?
R: jig
M: 6/8
K: Dmixolydian
G|ABc dcA|GFD C2D|FAA GEG|FAA GEG|
ABc dcA|GFD C2D|FAA GEA|1 ~D3 DcB:|2 ~D3 D3||
FGG BGG|A=FF F2A|GFG EAG|FAF D2E|
FGG BGG|A=FF F2G|F2A GEA|~D3 D2E|
FGG BGG|A=FF FBc|dBG GAB|^cBc d3|
=f2d dcA|GFD C2D|FAA GEA|D3 DcB:|

